src/pos-icons/spa.svg

<svg height="24" viewBox="0 0 24 24" width="24" xmlns="http://www.w3.org/2000/svg"><path d="m15.5 9.63c-.19-2.79-1.32-5.51-3.44-7.63-2.14 2.14-3.32 4.86-3.56 7.63 1.29.68 2.47 1.56 3.5 2.63 1.03-1.06 2.21-1.94 3.5-2.63m-3.5 5.82c-2.15-3.28-5.82-5.45-10-5.45 0 10 9.32 11.89 10 12 .68-.12 10-2 10-12-4.18 0-7.85 2.17-10 5.45z"/></svg>

<?xml version="1.0" encoding="UTF-8"?><!DOCTYPE svg PUBLIC "-//W3C//DTD SVG 1.1//EN" "http://www.w3.org/Graphics/SVG/1.1/DTD/svg11.dtd"><svg xmlns="http://www.w3.org/2000/svg" xmlns:xlink="http://www.w3.org/1999/xlink" version="1.1" id="mdi-spa" width="24" height="24" viewBox="0 0 24 24"><path d="M15.5,9.63C15.31,6.84 14.18,4.12 12.06,2C9.92,4.14 8.74,6.86 8.5,9.63C9.79,10.31 10.97,11.19 12,12.26C13.03,11.2 14.21,10.32 15.5,9.63M12,15.45C9.85,12.17 6.18,10 2,10C2,20 11.32,21.89 12,22C12.68,21.88 22,20 22,10C17.82,10 14.15,12.17 12,15.45Z" /></svg>
